src/assets/icons/facebook.svg

<svg height="40" viewBox="0 0 21 40" width="21" xmlns="http://www.w3.org/2000/svg"><path d="m13.6375877 40v-18.245938h6.1242716l.9170228-7.1107658h-7.0412944v-4.5397746c0-2.05873081.5716767-3.46168792 3.5238465-3.46168792l3.7653511-.00164538v-6.35992595c-.6512031-.08665646-2.8863548-.28026235-5.4867798-.28026235-5.4288261 0-9.14554722 3.31378688-9.14554722 9.39930072v5.24399548h-6.13999405v7.1107658h6.13999405v18.245938z" fill="#fff"/></svg>

<svg width="21px" height="40px" viewBox="0 0 21 40" version="1.1" xmlns="http://www.w3.org/2000/svg" xmlns:xlink="http://www.w3.org/1999/xlink">
    <!-- Generator: Sketch 50.2 (55047) - http://www.bohemiancoding.com/sketch -->
    <desc>Created with Sketch.</desc>
    <defs></defs>
    <g id="Symbols" stroke="none" stroke-width="1" fill="none" fill-rule="evenodd">
        <g id="icon/Facebook" fill="#FFFFFF" fill-rule="nonzero">
            <path d="M13.6375877,40 L13.6375877,21.754062 L19.7618593,21.754062 L20.6788821,14.6432962 L13.6375877,14.6432962 L13.6375877,10.1035216 C13.6375877,8.04479079 14.2092644,6.64183368 17.1614342,6.64183368 L20.9267853,6.6401883 L20.9267853,0.280262346 C20.2755822,0.193605887 18.0404305,0 15.4400055,0 C10.0111794,0 6.29445828,3.31378688 6.29445828,9.39930072 L6.29445828,14.6432962 L0.154464225,14.6432962 L0.154464225,21.754062 L6.29445828,21.754062 L6.29445828,40 L13.6375877,40 Z" id="Facebook"></path>
        </g>
    </g>
</svg>
